X:180
T: Donal O'Connor's
S: Treoir
Z: B.Black
M: 12/8
L: 1/8
R: slide
K: G
A | B3 cBA G2 E D2 D | EFG A2 B c3 cBA |
B3 cBA G2 E D2 D | EFG AFD G3 G2 :|
E | D2 B BAB d2 B BAB | D2 G A2 B c2 A ABA |
D2 B BAB d2 B BAB | ABA FGA G3 G2 :|
